X:1
T:Malaguena
T:from the spanish suite "Andalucia"
T:E. Lecuona
C:Ernesto Lecuona
%%score { ( 1 5 ) | ( 2 3 4 ) }
L:1/8
Q:1/4=120
M:3/4
K:E
V:1 treble nm="Piano" snm="Pno."
V:5 treble 
V:2 bass 
V:3 bass 
V:4 bass 
V:1
!p! z2 ([C^EG][=DFA] .[=EGB]2) | ([C^EG][=DFA] .[=EGB]2) .[DFA]2 | %2
 [C^EG]2 [G,-CE][A,CF] .[G,CEG]2 | [G,-C^E][A,CF] .[G,CEG]2 .[A,=DFA]2 | %4
 .[G,C^EG]2 ([CEG][=DFA] .[=EGB]2) | ([C^EG][=DFA] .[=EGB]2) .[DFA]2 | %6
 .[C^EG]2 [G,-CE][A,CF] [G,CEG]2 | [G,-C^E][A,CF] .[G,CEG]2 .[A,=DFA]2 | %8
"_cresc." [G,C^EG]2 ([G,CEG][A,A] .[CEGc]2) | ([G,C^EG][A,A] .[CEGc]2) .[B,EGB]2 | %10
 [A,=DFA]2 ([F,F][G,G] .[A,DFA]2) | ([A,=DFA][B,B] .[CFAc]2) .[DFA=d]2 | %12
!f! .[C^EGc]2 ([EGc^e][Ff] .[Gceg]2) | ([^EGc^e][Ff] .[Gceg]2) .[A=dfa]2 | %14
 .[Gc^eg]2 ([^EGce][Ff] .[Gceg]2) | ([^EGc^e][Ff] !>![Gceg]2) !>![FB=df]2 | %16
!ff! !>![^EGc^e]2 ([Gceg][Aa] !>![cegc']2) | ([Gc^eg][Aa] !>![cegc']2) !>![Begb]2 | %18
 !>![A=dfa]2 ([FAdf][Gg] !>![Adfa]2) | ([A=dfa][Bb] !>![cfac']2) !>![dfa=d']2 | %20
!f! !>![c^egc']2"_a tempo"!8va(! (5:4:5(c''/=d''/!<(!c''/g'/!8va)!e/) (5:4:5(c'/=d'/c'/g/e/)!<)! | %21
 c2 (5:4:5c'/=d'/c'/g/^e/"_dim." (5:4:5c/=d/c/G/^E/ | %22
 C2!p!!8va(! (5:4:5(c''/=d''/c''/g'/^e'/)!8va)!!>(! (5:4:5(c'/=d'/c'/g/^e/)!>)! | %23
 c2 (5:4:5(c'/=d'/c'/g/^e/) (5:4:5(c/=d/c/G/^E/) | %24
 C2!8va(! (5:4:5(c''/=d''/c''/g'/c'/)"_cresc." (5:4:5(c''/d''/c''/g'/!8va)!c/) | %25
!8va(! (5:4:5(c''/=d''/c''/g'/c'/)"_dim." (5:4:5(c''/d''/c''/g'/c'/) (5:4:5(c''/d''/c''/g'/c'/) | %26
 (5:4:5(c''/=d''/c''/"_poco rit."g'/c'/) (5:4:5(c''/d''/c''/g'/c'/) (5:4:5(c''/d''/c''/g'/c'/) | %27
!f! (5:4:5(c''/"_a tempo"=d''/c''/g'/c'/) (5:4:5(c''/d''/c''/g'/c'/) (5:4:5(c''/d''/c''/g'/c'/) | %28
 (5:4:5(c''/=d''/c''/g'/c'/) (5:4:5(c''/d''/c''/g'/c'/) (5:4:5(c''/d''/c''/g'/c'/) | %29
 (5:4:5(=d''/e''/d''/a'/=d'/) (5:4:5(d''/e''/d''/a'/d'/) (5:4:5(d''/e''/d''/a'/d'/) | %30
 (5:4:5(=d''/e''/d''/a'/=d'/) (5:4:5(d''/e''/d''/a'/d'/) (5:4:5(d''/e''/d''/a'/d'/) | %31
 (5:4:5(=d''/e''/d''/a'/=d'/) (5:4:5(d''/e''/d''/a'/d'/) (5:4:5(d''/e''/d''/a'/d'/) | %32
 (5:4:5(=d''/e''/d''/a'/=d'/) (5:4:5(d''/e''/d''/a'/d'/) (5:4:5(d''/e''/d''/a'/d'/) | %33
 (5:4:5(c''/=d''/c''/g'/c'/) (5:4:5(c''/d''/c''/g'/c'/) (5:4:5(c''/d''/c''/g'/c'/) | %34
 (5:4:5(c''/=d''/c''/g'/c'/) (5:4:5(c''/d''/c''/g'/c'/) (5:4:5(c''/d''/c''/g'/c'/) | %35
!ff! (5:4:5(c''/=d''/c''/g'/c'/) (5:4:5(c''/d''/c''/g'/c'/) (5:4:5(c''/d''/c''/g'/c'/) | %36
 (5:4:5(c''/=d''/c''/g'/c'/) (5:4:5(c''/d''/c''/g'/c'/) (5:4:5(c''/d''/c''/g'/c'/) | %37
 (5:4:5(=d''/e''/=d''/a'/=d'/)!<(! (5:4:5(=d''/e''/=d''/a'/d'/) (5:4:5(=d''/e''/=d''/a'/d'/)!<)! | %38
 (5:4:5(=d''/e''/d''/a'/=d'/) (5:4:5(d''/e''/d''/a'/d'/) (5:4:5(d''/e''/d''/a'/d'/) | %39
"_dim." (5:4:5(=d''/e''/d''/a'/=d'/) (5:4:5(d''/e''/d''/a'/d'/) (5:4:5(d''/e''/d''/a'/d'/) | %40
"_poco rit." (5:4:5(=d''/e''/d''/a'/=d'/) (5:4:5(d''/e''/d''/a'/d'/) (5:4:5(d''/e''/d''/a'/d'/) | %41
 (5:4:5(c''/=d''/c''/g'/^e'/)!8va)!!<(! (5:4:5(c'/=d'/c'/g/^e/) (5:4:5(c/=d/c/G/^E/)!<)! | %42
"_a tempo" !>!C2!mf! .[^Ec].[E=d].[Ee].[Ed] | .[^Ec]2 .[EG].[EB]{/B}.[EA].[EG] | %44
{/B} .[FA]2{F-G} .F"_cresc.".^E.F.G | .A.G.B.A.G.F | %46
 .[^Ec]2!f!"_sempre stacc." [cc'][=d=d'][=e=e'][dd'] | !>![cgc']2 [Gg][Bb][Aa][Gg] | %48
{/b} !>![Afa]2{f-g} [Ff][^E^e][Ff][Gg] |{/b} [Afa][Gg][Bb][Aa][Gg][Ff] | %50
 !>![^Ec^e]2!ff!!8va(! [c'c'']"_accel. poco a poco"[=d'=d''][e'=e''][d'd''] | %51
 !>![c'g'c'']2 [gg'][bb'][aa'][gg'] |{/b'} [af'a']2{f'-g'} [ff'][^e^e'][ff'][gg'] | %53
{/b'} [af'a'][gg'][bb'][aa'][gg'][ff'] | %54
 !>![c'g'c'']2"_cresc. ed accel." (5:4:5(c''/=d''/c''/g'/!8va)!^e/) (5:4:5(c'/=d'/c'/g/e/) | %55
 (5:4:5(c/=d/c/G/^E/)[K:bass] (5:4:5(C/=D/C/G,/^E,/) (5:4:5(C,/=D,/C,/G,,/^E,,/) | %56
 !>!C,,2[K:treble]!8va(! !>![c'g'c''] z !fermata!z2!8va)! ||!f!"^Lento (a la capriccio)" z6 | z6 | %59
 z6 | z6"_r.h.""^l.h." |!f! x6 | x6 | x6 | x6!pp! |!f! z6 | z6 | z6 | z6"_r.h." | x32 x4 | %70
"^Moderato"!8va(! (c''/=d''/c''/g'/) .^e'.c'.e'.g' | (c''/=d''/c''/g'/) .^e'.c'.e'.g' | %72
 .=d''.a'.f''.d''.g''.f'' | .=d''.a'.g'.f'.=d'.a | (c''/=d''/c''/g'/) .^e'.c'.e'.g' | %75
 (c''/=d''/c''/g'/) .^e'.c'.e'.g' | .=d''.a'.f''.d''.g''.f'' | .=d''.a'.g'.f'.=d'.a | %78
 .c''.[^e'g'].c''.=d''.=e''.d'' | .c''.^e'.g'.b'{/b'}.a'.g' | .a'.=d'{f'-g'}.f'.^e'.f'.g' | %81
 .a'.g'.b'.a'.g'.f' | .c''.[^e'g'].c''.=d''.=e''.d'' | .c''.^e'.g'.b'{/b'}.a'.g' | %84
 .a'.=d'{f'-g'}.f'.^e'.f'.g' | .a'.g'.b'.a'.g'.f' | .c''.[^e'g'].^e''.f''.g''.f'' | %87
"_accel.             poco            a         poco" .[c''^e''].^e'.e''.f''.g''.f'' | %88
 .[c''f''].f'.f''.g''.a''.f'' | .[c''f''].g''.a''.f''.g''.a'' | .[c''g''].g'.^e''.f''.g''.f'' | %91
 .[c''^e''].^e'.e''.f''.g''.e'' | .[c''g''].f'.f''.g''.a''.g'' | .[c''f''].g''.a''.f''.g''.a'' | %94
!mf!"^Piu mosso" !>![g'c''g'']2"_cresc." !>![^e'c''^e''][f'c''f''] !>![g'c''g'']2 | %95
 !>![^e'c''^e'']!>![f'c''f''] !>![g'c''g'']2 !>![e'c''e'']2 | %96
 !>![f'c''f'']2 !>![f'c''f'']!>![g'c''g''] !>![a'c''a'']2 | %97
 !>![f'c''f'']!>![g'c''g''] !>![a'c''a'']2 !>![f'c''f'']2 | %98
!f! !>![g'c''g'']2"_cresc. sempre" !>![^e'c''^e'']!>![f'c''f''] !>![g'c''g'']2 | %99
 !>![^e'c''^e'']!>![f'c''f''] !>![g'c''g'']2 !>![e'c''e'']2 | %100
 !>![f'c''f'']2 !>![f'c''f'']!>![g'c''g''] !>![a'c''a'']2 | %101
"_rit." !>![f'c''f'']!>![g'c''g''] !>![a'c''a'']2 !>![f'c''f'']2 | %102
!ff! !>![g'c''^e''g'']2"_a tempo" !>![c'c'']!>![=d'=d'']!>![bb']!>![c'c''] | %103
 !>![gg']!>![bb']!>![^e^e']!>![gg']!8va)!!>![cc']!>![=d=d'] | %104
 !>![cc']2 !>![cc']!>![=d=d']!>![Bb]!>![cc'] | !>![Gg]!>![Bb]!>![^E^e]!>![Gg]!>![Cc]!>![=D=d] | %106
 !>![Cc]2 !>![Cc]!>![=D=d]!>![B,B]!>![Cc] | !>![G,G]!>![B,B]!>![^F,^E]!>![G,G]!>![C,C]!>![=D,=D] | %108
 !>![C,C]2 !>![Cc]2!f! !>![cc']2 | !>![c'c'']2 !>![cc']2 !>![Cc]2 | %110
!fff! !>![Gc^eg]2 !>![Acea]3 !>![Begb] | !>![B^egb]2 !>![Begb]2 !>![Begb]2 | %112
 !>![B=dfb]2 !>![Ada]!>![Gdg]!>![Fdf]!>![Gdg] |"_rapido" !>![A=dfa]6"_r.h." | %114
!fff! !>![FA=df]2 !>![Gdg]2 !>![Adfa]2 | !>![B=dfb]2 !>![Adfa]3 !>![Gdg] | %116
{/g} !>![Fcf]2 !>![^Ec^e]!>![Fcf] !>![Gceg]2- |"_rapido" [Gceg]6"_r.h." | %118
!fff! !>![Gc^eg]2 !>![Acea]3 !>![Begb] | !>![B^egb]2 !>![Begb]2 !>![Begb]2 | %120
 !>![B=dfb]2 !>![Ada]!>![Gdg]!>![Fdf]!>![Gdg] |"_rapido" [A=dfa]6"_r.h." | %122
!fff! !>![FA=df]2 !>![Gdg]2"_rit." !>![Adfa]2 | !>![B=dfb]2 !>![Adfa]2 !>![Bdfb]2 | %124
"^Vivace"!fff! !>![c^egc']2 .[cc'].[=d=d'].[=e=e'].[dd'] | !>![c^egc']2 .[Gg].[Bb].[Aa].[Gg] | %126
{/b} !>![A=dfa]2 .[Ff].[^E^e].[Ff].[Gg] | .[Aa].[Gg].[Bb].[Aa].[Gg].[Ff] | %128
!fff!!8va(! !>![^egc'^e']2 .[c'c''].[=d'=d''].[=e'e''].[d'd''] | %129
 !>![c'^e'g'c'']2 .[gg'].[bb'].[aa'].[gg'] | !>![a=d'f'a']2 .[ff'].[^e^e'].[ff'].[gg'] | %131
 .[aa'].[gg'].[bb'].[aa'].[gg'].[ff'] | %132
!fff!{/=d''} [c'g'c'']2"_rit."{/=d''} [c'g'c'']2{/=d''} [c'g'c'']2 | %133
{/=d''} [c'g'c'']2{/=d''} [c'g'c'']2{/=d''} [c'g'c'']2 | %134
"_accel."{/=d''} [c'g'c'']2{/=d''} [c'g'c'']2{/=d''} [c'g'c'']2 | %135
{/=d''} [c'g'c'']2{/=d''} [c'g'c'']2{/=d''} [c'g'c'']2 |!fff! z2 !>![c'^e'g'c'']2 z2!8va)! | %137
!fff! z2 !>![c^egc']2 z2 |!fff! z2 z2 !>![c^egc']2 | !>![c'^e'g'c'']2 z4 | !fermata!z6 |] %141
V:2
 [C,,G,,]4 [C,,G,,]2- | [C,,G,,]2 .[C,,G,,]2 .[C,,G,,]2 | [C,,G,,]4 [C,,G,,]2- | %3
 [C,,G,,]2 .[C,,G,,]2 .[C,,G,,]2 | [C,,G,,]4 [C,,G,,]2- | [C,,G,,]2 .[C,,G,,]2 .[C,,G,,]2 | %6
 [C,,G,,]4 [C,,G,,]2- | [C,,G,,]2 .[C,,G,,]2 .[C,,G,,]2 | [C,,G,,]3 C,, (([G,,-^E,]2 | %9
 [G,,^E,])C,,[G,,^E,]C,,[G,,E,]C,,) | [A,,F,]3 C,, ([A,,F,]2- | [A,,F,]C,,[A,,F,]C,,[A,,F,]C,,) | %12
 [G,,^E,]3 C,, ([G,,-E,]2 | [G,,^E,])C,,[G,,^E,]C,,[A,,F,]C,, | [G,,^E,]3 C,, ([G,,-E,]2 | %15
 [G,,^E,])C,,[G,,^E,]C,,[A,,F,]C,, | [G,,^E,]3 C,, (([G,,-E,]2 | %17
 [G,,^E,])C,,[G,,^E,]C,,[G,,E,]C,,) | [A,,F,]3 C,, ([A,,-F,]2 | %19
"^rit. poco" [A,,F,])C,,[A,,F,]C,,[A,,F,]C,, | !>![C,,G,,^E,]2 z2[K:treble] (!>!G2 | %21
 !>!C2) z2[K:bass] (!>!G,2 | !>!C,2) z2[K:treble] (.G2 | .C2) z2[K:bass] (.G,2 | %24
 .C,2) z2[K:treble] (.g2 | .c2) (.G2 .C2) |[K:bass] (.G,2 .C,2) .G,,2 |[K:treble] (G2 A2 B2) | %28
 !>![B,C^EB]2 !>![B,CEB]2 !>![B,CEB]2 | !arpeggio![A,=DFB]2 A-G FG | A6 | (F2 G2 A2) | (B2 A2 G2) | %33
 (F2 ^EF G2) |[K:bass] !>![C,,G,,]6 | ([^E,G,C^E]2 [F,F]2 [G,G]2) | %36
[K:treble] [B,-C^EB]2 [=D=d]2 [Cc]2 | [B,=DFB]2 ([A,A][G,G][F,F][G,G]) | ([B,=DFB]4 [A,A]2) | %39
 ([G,=DG]4 [F,F]2) |[K:bass] [E,F,A,E]4 [=D,F,A,=D]2 |{/C,-} !tenuto![C,^E,G,C]6 | %42
 !>!C,,2 [^E,G,C]2 !>!G,,2 | !>![C,,G,,]2 [^E,G,C]2 !>!G,,2 | !>![C,,A,,]2 [F,A,=D]2 !>!A,,2 | %45
 !>![C,,A,,]2 [F,A,=D]2 !>!A,,2 | !>![C,,G,,]2 [^E,G,C]2 !>!G,,2 | !>![C,,G,,]2 [^E,G,C]2 !>!G,,2 | %48
 !>![C,,A,,]2 [F,A,=D]2 !>!A,,2 | !>![C,,A,,]2 [F,A,=D]2 !>!A,,2 | !>![C,,G,,]2 [^E,G,C]2 !>!G,,2 | %51
 !>!C,,2 [^E,G,C]2 !>!G,,2 | !>!C,,2 [F,A,=D]2 !>!A,,2 | !>!C,,2 [F,A,=D]2 !>!G,,2 | %54
 !>!C,,2 z2[K:treble] !>!G2 | !>!C2 z2[K:bass]!8vb(! !>!G,,,2!8vb)! | %56
 !>!C,,2 [G,C^E] z !fermata!z2 || !>!G,2 !>!A,2 !>!B,2 | !>!B,2 !>!B,2 !>!B,2 | %59
 !>!B,2{A,-B,} !>!A,!>!G, !>!F,!>!G, | !>!A,6 | !>!F,2 !>!G,2 !>!A,2 | !>!B,2 !>!A,2 !>!G,2 | %63
{F,G,} !>!F,2 !>!^E,!>!F, !>!G,2- | !>!G,6 | !>!^E,2 !>!F,2 !>!G,2 | !>!B,2 !>!B,2 !>!B,2 | %67
 !>!B,2{A,B,} !>!A,!>!G,!>!F,!>!G, | !>!A,6 | %69
!f! !>!F,"^a piacere"!>!G,!>!A,!>!B, !>!C/!>!B,/!>!=D/!>!C/ !>!E2- E(=DCB,A,G,F,) !>!E,/!>!=D,/!>!F,/!>!E,/ !fermata!G,2 F,E, D,/C,/E,/D,/ !fermata!F,4 (3^E,/4F,/4E,/4 !>!^C,4{/!fermata!C,,-} !>!!fermata![C,,G,,^E,]4 x/ | %70
 .[C^EGc]2 .[E^e]2 .[Gg]2 | .[C^EGc]2 .[E^e]2 .[Gg]2 | .[F=df]2 .[Aa]2 .[Gg]2 | %73
 .[F=df]2 .[=E=e]2 .[=Dd]2 | [C^EGc]2 .[E^e]2 .[Gg]2 | [C^EGc]2 .[E^e]2 .[Gg]2 | %76
 .[F=df]2 .[Aa]2 .[Gg]2 | .[F=df]2 .[=E=e]2 .[=Dd]2 | .[C^EGc]2 .[E^e]2 .[Gg]2 | %79
 .[C^EGc]2 .[E^e]2 .[Gg]2 | .[Ff]2 .[Aa]2 .[Gg]2 | .[Ff]2 .[=E=e]2 .[=D=d]2 | %82
 .[C^EGc]2 .[E^e]2 .[Gg]2 | .[C^EGc]2 .[E^e]2 .[Gg]2 | .[Ff]2 .[Aa]2 .[Gg]2 | %85
 .[Ff]2 .[=E=e]2 .[=D=d]2 | .[C^EGc]2 .[E^e]2 .[Gg]2 | .[C^EGc]2 .[E^e]2 .[Gg]2 | %88
 .[Ff]2 .[Aa]2 .[Gg]2 | .[Ff]2 .[Ee]2 .[=D=d]2 | .[C^EGc]2 .[E^e]2 .[Gg]2 | %91
 .[C^EGc]2 .[E^e]2 .[Gg]2 | .[Ff]2 .[Aa]2 .[Gg]2 | .[Ff]2 .[=E=e]2 .[=D=d]2 | %94
 !>![C^EGc]2 !>![E^e]2 !>![Gg]2 | !>![C^EGc]2 !>![E^e]2 !>![Gg]2 | !>![Ff]2 !>![Aa]2 !>![Gg]2 | %97
 !>![Ff]2 !>![=E=e]2 !>![=D=d]2 | !>![C^EGc]2 !>![E^e]2 !>![Gg]2 | !>![C^EGc]2 !>![E^e]2 !>![Gg]2 | %100
 !>![Ff]2 !>![Aa]2 !>![Gg]2 | !>![Ff]2 !>![=E=e]2 !>![=D=d]2 | %102
 !>![Cc]2 !>![Cc]!>![=D=d]!>![B,B]!>![Cc] | %103
[K:bass] !>![G,G]!>![B,B]!>![^E,^E]!>![G,G]!>![C,C]!>![=D,=D] | %104
 !>![C,C]2 !>![C,C]!>![=D,=D]!>![B,,B,]!>![C,C] | %105
 !>![G,,G,]!>![B,,B,]!>![^E,,^E,]!>![G,,G,]!>![C,,C,]!>![=D,,=D,] | %106
 !>![C,,C,]2 !>![C,,C,]!>![=D,,=D,]!>![B,,,B,,]!>![C,,C,] | %107
 !>![G,,,G,,]!>![B,,,B,,]!>![^E,,,^E,,]!>![G,,,G,,]!>![C,,,C,,]!>![=D,,,=D,,] | %108
 !>![C,,,C,,]2 !>![C,,C,]2 !>![C,C]2 |[I:staff -1] !>![Cc]2[I:staff +1] !>![C,C]2 !>![C,,C,]2 | %110
{/C,,} !>![B,,C,^E,G,]2 !>![B,,C,E,A,]3 !>![B,,C,E,B,] | %111
 !>![B,,C,^E,B,]2 !>![B,,C,E,B,]2 !>![B,,C,E,B,]2 | %112
{/[=D,,,=D,,]} !>![A,,=D,F,B,]2 [A,,D,A,][A,,D,G,][A,,D,F,][A,,D,G,] | !>![A,,=D,F,A,]6 | %114
{/[=D,,,=D,,]} !>![A,,=D,F,]2 !>![A,,D,G,]2 !>![A,,D,F,A,]2 | %115
 !>![A,,=D,F,B,]2 !>![A,,D,F,A,]3 !>![A,,D,G,] | %116
{/C,,} !>![G,,C,F,]2 !>![G,,C,^E,]!>![G,,C,F,] !>![G,,C,E,G,]2- |!<(! [G,,C,E,G,]6!<)! | %118
{/C,,} !>![B,,C,^E,G,]2 !>![B,,C,=F,A,]3 !>![B,,C,E,B,] | %119
 !>![B,,C,^E,G,]2 !>![B,,C,E,G,]2 !>![B,,C,E,G,]2 | %120
{/=D,,} !>![A,,=D,F,B,]2 !>![A,,D,A,]!>![A,,D,G,]!>![A,,D,F,]!>![A,,D,G,] | !>![A,,=D,F,A,]6 | %122
{/=D,,} !>![A,,=D,F,]2{/A,,-} !>![A,,D,G,]2{/A,,-} !>![A,,D,F,A,]2 | %123
{/A,,-} !>![A,,=D,F,B,]2{/A,,-} !>![A,,D,F,A,]2{/A,,-} !>![A,,D,F,B,]2 | %124
!8vb(! !>![C,,,C,,]2!8vb)! [G,C^E]2 !>!G,,2 | !>!C,,2 [G,C^E]2 !>!G,,2 | %126
 !>!C,,2 !>![F,A,=D]2 !>!A,,2 | !>!C,,2 [F,A,=D]2 !>!A,,2 | !>![C,,C,]2 !>![^E,,^E,]2 !>![G,,G,]2 | %129
 !>![C,,C,]2 !>![^E,,^E,]2 !>![G,,G,]2 | !>![F,,F,]2 !>![A,,A,]2 !>![G,,G,]2 | %131
 !>![F,,F,]2 !>![=E,,E,]2 !>![=D,,=D,]2 | !>![C,,C,]2 !>![G,,G,]2 !>![C,C]2 | %133
 !>![G,G]2 !>![Cc]2 !>![G,G]2 | !>![C,C]2 !>![G,,G,]2 !>![C,C]2 | %135
 !>![G,,G,]2 !>![C,,C,]2 !>![G,,,G,,]2 | !>![C,,,C,,]2 !>![G,C^E]2 z2 | %137
 !>![C,,,C,,]2 !>![G,C^E]2 z2 | !>![C,,,C,,]2 z2 !>![G,C^E]2 | z4 !>!C2 | !>!C,2 !fermata!z4 |] %141
V:3
 x6 | x6 | x6 | x6 | x6 | x6 | x6 | x6 | x6 | x6 | x6 | x6 | x6 | x6 | x6 | x6 | x6 | x6 | x6 | %19
 x6 | x4[K:treble] x2 | x4[K:bass] x2 | x4[K:treble] x2 | x4[K:bass] x2 | x4[K:treble] x2 | x6 | %26
[K:bass] x6 |[K:treble]{/!>!A,} !>![B,C^E]6 | x6 | x2 [A,=DF]4 | [A,=DF]6 | [A,=D]6 | F4 G2 | %33
 [G,C]6 |[K:bass] x6 | x6 |[K:treble] x6 | x6 | x6 | x6 |[K:bass] x6 | x6 | x6 | x6 | x6 | x6 | %46
 x6 | x6 | x6 | x6 | x6 | x6 | x6 | x6 | x4[K:treble] x2 | x4[K:bass]!8vb(! x2!8vb)! | x6 || x6 | %58
 x6 | =D,,,6- | %60
 (9:8:9=D,,,/4!pp!(A,,,/4=D,,/4!3!F,,/4!5!D,,/4F,,/4A,,/4=D,/4!3!F,/4 (9:8:9!5!D,/4F,/4A,/4=D/4F/4[I:staff -1]A/4=d/4f/4a/4) !fermata!f'2 | %61
 x6 | x6 | x6 | %64
[I:staff +1] (9:8:9!>!C,,/4!3!G,,/4!2!C,/4!1!^E,/4C,/4E,/4!3!G,/4C/4[I:staff -1]^E/4 x4 | x6 | x6 | %67
[I:staff +1] =D,,,6- | %68
 (9:8:9=D,,,/4!pp!A,,,/4=D,,/4!3!F,,/4!5!D,,/4F,,/4A,,/4=D,/4!3!F,/4 (9:8:9!5!D,/4F,/4A,/4=D/4F/4[I:staff -1]A/4=d/4f/4a/4"^l.h." !fermata!f'2 | %69
 x36 | x6 | x6 | x6 | x6 | x6 | x6 | x6 | x6 | x6 | x6 | x6 | x6 | x6 | x6 | x6 | x6 | x6 | x6 | %88
 x6 | x6 | x6 | x6 | x6 | x6 | x6 | x6 | x6 | x6 | x6 | x6 | x6 | x6 | x6 | %103
[I:staff +1][K:bass] x6 | x6 | x6 | x6 | x6 | x6 | x6 | x6 | x6 | x6 | %113
 (9:8:9z/4 =D,,/4A,,/4=D,/4F,/4A,/4=D/4F/4D/4F/4[I:staff -1]A/4=d/4f/4a/4=d'/4f'/4a'/4"_l.h."!8va(! !>!f''2!8va)! | %114
 x6 | x6 | x6 | %117
[I:staff +1] (7:4:7C,,/G,,/C,/^E,/G,/C/^E/[I:staff -1](7:4:7G/c/^e/g/c'/^e'/g'/"_l.h." !>!c''2 | %118
 x6 | x6 | x6 | %121
[I:staff +1] (9:8:9z/4 =D,,/4A,,/4=D,/4F,/4A,/4=D/4F/4D/4F/4[I:staff -1]A/4=d/4f/4a/4=d'/4f'/4a'/4"_l.h."!8va(! !>!f''2!8va)! | %122
 x6 | x6 |!8vb(! x2!8vb)! x4 | x6 | x6 | x6 | x6 | x6 | x6 | x6 | x6 | x6 | x6 | x6 | x6 | x6 | %138
 x6 |[I:staff +1] z4 !>![C,,C,]2 | !>![C,,,C,,]2 z4 |] %141
V:4
 x6 | x6 | x6 | x6 | x6 | x6 | x6 | x6 | x6 | x6 | x6 | x6 | x6 | x6 | x6 | x6 | x6 | x6 | x6 | %19
 x6 | x4[K:treble] x2 | x4[K:bass] x2 | x4[K:treble] x2 | x4[K:bass] x2 | x4[K:treble] x2 | x6 | %26
[K:bass] x6 |[K:treble] x6 | x6 | x6 | x6 | x6 | [A,=D]6 | x6 |[K:bass] x6 | x6 |[K:treble] x6 | %37
 x6 | x6 | x6 |[K:bass] x6 | x6 | x6 | x6 | x6 | x6 | x6 | x6 | x6 | x6 | x6 | x6 | x6 | x6 | %54
 x4[K:treble] x2 | x4[K:bass]!8vb(! x2!8vb)! | x6 || x6 | x6 | x6 | x6 | x6 | x6 | x6 | x6 | x6 | %66
 x6 | x6 | x6 | x36 | x6 | x6 | x6 | x6 | x6 | x6 | x6 | x6 | x6 | x6 | x6 | x6 | x6 | x6 | x6 | %85
 x6 | x6 | x6 | x6 | x6 | x6 | x6 | x6 | x6 | x6 | x6 | x6 | x6 | x6 | x6 | x6 | x6 | x6 | %103
[K:bass] x6 | x6 | x6 | x6 | x6 | x6 | x6 | x6 | x6 | x6 | x255/64!8va(! x2!8va)! | x6 | x6 | x6 | %117
 x241/40 | x6 | x6 | x6 | x255/64!8va(! x2!8va)! | x6 | x6 |!8vb(! x2!8vb)! x4 | x6 | x6 | x6 | %128
 x6 | x6 | x6 | x6 | x6 | x6 | x6 | x6 | x6 | x6 | x6 | x6 | x6 |] %141
V:5
 x6 | x6 | x6 | x6 | x6 | x6 | x6 | x6 | x6 | x6 | x6 | x6 | x6 | x6 | x6 | x6 | x6 | x6 | x6 | %19
 x6 | x2!8va(! x8/5!8va)! x12/5 | x6 | x2!8va(! x2!8va)! x2 | x6 | x2!8va(! x18/5!8va)! x2/5 | %25
!8va(! x6 | x6 | x6 | x6 | x6 | x6 | x6 | x6 | x6 | x6 | x6 | x6 | x6 | x6 | x6 | x6 | %41
 x2!8va)! x4 | x6 | x6 | x6 | x6 | x6 | x6 | x6 | x6 | x2!8va(! x4 | x6 | x6 | x6 | %54
 x18/5!8va)! x12/5 | x2[K:bass] x4 | x2[K:treble]!8va(! x4!8va)! || x6 | x6 | x6 | x6 | x6 | x6 | %63
 x6 | z2 C/4^E/4G/4c/4"^r.h."^e/4g/4c'/4^e'/4"^l.h." !fermata!c''2 | x6 | x6 | x6 | x6 | x36 | %70
!8va(! x6 | x6 | x6 | x6 | x6 | x6 | x6 | x6 | x6 | x6 | x6 | x6 | x6 | x6 | x6 | x6 | x6 | x6 | %88
 x6 | x6 | x6 | x6 | x6 | x6 | x6 | x6 | x6 | x6 | x6 | x6 | x6 | x6 | x6 | x4!8va)! x2 | x6 | x6 | %106
 x6 | x6 | x6 | x6 | x6 | x6 | x6 | x6 | x6 | x6 | x6 | x241/40 | x6 | x6 | x6 | x6 | x6 | x6 | %124
 x6 | x6 | x6 | x6 |!8va(! x6 | x6 | x6 | x6 | x6 | x6 | x6 | x6 | x6!8va)! | x6 | x6 | %139
 !>![Gc^e]2 z4 | x6 |] %141

